X: 153
M: 6/8
L: 1/8
K: D
V: 1
|:\
f2d dfd | dfd efg | f2d dfd | a3 bag | ~f2d dfd | afd dfd | e2=c cdc | gfg efg |
fdf ece | dcd BAG | F2d dcd | A3 ABc | dBd cAc | BGB AGF | E2=c cBc | GAG BAG |]
V: 2 clef=bass middle=d
z |\
[a3f3d3] [a3f3d3] | [a3f3d3] [a3e3c3] | [a3f3d3] [a3f3d3] | [a3f3d3] [a3f3d3] |\
[a3f3d3] [a3f3d3] | [a3f3d3] [a3f3d3] | [g3e3=c3] [g3e3=c3] | [g3e3=c3] [a3e3^c3] :|
|:\
[a3f3d3] [a3f3d3] | [a3f3d3] [a3f3d3] | [a3f3d3] [a3f3d3] | [a3f3d3] [g3d3] |\
[a3f3d3] [a3f3d3] | [a3f3d3] [a3f3d3] | [g3e3=c3] [g3e3=c3] | [g3e3=c3] [1 [a3e3^c3] :|[2 [a3e3^c3] ||
[a3f3d3] [a3f3d3] | [a3f3d3] [a3e3c3] | [a3f3d3] [a3f3d3] | [a3f3d3] [g3d3] |\
[a3f3d3] [a3f3d3] | [a3f3d3] [a3f3d3] | [g3e3=c3] [g3e3=c3] | [g3e3=c3] [a3e3^c3] |
[a3f3d3] [a3e3c3] | [a3f3d3] [b3g3d3] | [a3f3d3] [a3f3d3] | [a3f3d3] [a3f3d3] |\
[b3d3] [a3d3] | [g3d3] f2d | [g3e3=c3] [g3e3=c3] | [g3e3=c3] [a3e3^c3] |]


